assets/img/braze_icons/sale-02.svg

<svg fill="none" height="24" viewBox="0 0 24 24" width="24" xmlns="http://www.w3.org/2000/svg"><path clip-rule="evenodd" d="m8.86585 2.1543c1.80605-1.539068 4.46225-1.539068 6.26825 0 .4536.38655 1.0176.62016 1.6117.66756 2.3653.18876 4.2436 2.06703 4.4323 4.43236.0474.59407.281 1.15804.6676 1.61163 1.5391 1.80605 1.5391 4.46225 0 6.26825-.3866.4536-.6202 1.0176-.6676 1.6117-.1887 2.3653-2.067 4.2436-4.4323 4.4323-.5941.0474-1.1581.281-1.6117.6676-1.806 1.5391-4.4622 1.5391-6.26825 0-.45359-.3866-1.01756-.6202-1.61163-.6676-2.36533-.1887-4.2436-2.067-4.43236-4.4323-.0474-.5941-.28101-1.1581-.66756-1.6117-1.539068-1.806-1.539068-4.4622 0-6.26825.38655-.45359.62016-1.01756.66756-1.61163.18876-2.36533 2.06703-4.2436 4.43236-4.43236.59407-.0474 1.15804-.28101 1.61163-.66756zm7.84125 6.55281c.3905-.39053.3905-1.02369 0-1.41422-.3905-.39052-1.0237-.39052-1.4142 0l-8.00001 8.00001c-.39052.3905-.39052 1.0237 0 1.4142.39053.3905 1.02369.3905 1.41422 0zm-9.2071.29289c0-.82843.67157-1.5 1.5-1.5s1.5.67157 1.5 1.5-.67157 1.5-1.5 1.5-1.5-.67157-1.5-1.5zm6 6c0-.8284.6716-1.5 1.5-1.5s1.5.6716 1.5 1.5-.6716 1.5-1.5 1.5-1.5-.6716-1.5-1.5z" fill="#801ed7" fill-rule="evenodd"/></svg>

<svg width="24" height="24" viewBox="0 0 24 24" fill="none" xmlns="http://www.w3.org/2000/svg">
<path fill-rule="evenodd" clip-rule="evenodd" d="M8.86585 2.1543C10.6719 0.615232 13.3281 0.615232 15.1341 2.1543C15.5877 2.54085 16.1517 2.77446 16.7458 2.82186C19.1111 3.01062 20.9894 4.88889 21.1781 7.25422C21.2255 7.84829 21.4591 8.41226 21.8457 8.86585C23.3848 10.6719 23.3848 13.3281 21.8457 15.1341C21.4591 15.5877 21.2255 16.1517 21.1781 16.7458C20.9894 19.1111 19.1111 20.9894 16.7458 21.1781C16.1517 21.2255 15.5877 21.4591 15.1341 21.8457C13.3281 23.3848 10.6719 23.3848 8.86585 21.8457C8.41226 21.4591 7.84829 21.2255 7.25422 21.1781C4.88889 20.9894 3.01062 19.1111 2.82186 16.7458C2.77446 16.1517 2.54085 15.5877 2.1543 15.1341C0.615232 13.3281 0.615232 10.6719 2.1543 8.86585C2.54085 8.41226 2.77446 7.84829 2.82186 7.25422C3.01062 4.88889 4.88889 3.01062 7.25422 2.82186C7.84829 2.77446 8.41226 2.54085 8.86585 2.1543ZM16.7071 8.70711C17.0976 8.31658 17.0976 7.68342 16.7071 7.29289C16.3166 6.90237 15.6834 6.90237 15.2929 7.29289L7.29289 15.2929C6.90237 15.6834 6.90237 16.3166 7.29289 16.7071C7.68342 17.0976 8.31658 17.0976 8.70711 16.7071L16.7071 8.70711ZM7.5 9C7.5 8.17157 8.17157 7.5 9 7.5C9.82843 7.5 10.5 8.17157 10.5 9C10.5 9.82843 9.82843 10.5 9 10.5C8.17157 10.5 7.5 9.82843 7.5 9ZM13.5 15C13.5 14.1716 14.1716 13.5 15 13.5C15.8284 13.5 16.5 14.1716 16.5 15C16.5 15.8284 15.8284 16.5 15 16.5C14.1716 16.5 13.5 15.8284 13.5 15Z" fill="#801ED7"/>
</svg>
